input/gsr/gsd/flags/ally_flag.svg

<?xml version="1.0" encoding="UTF-8"?>
<svg id="svg2" enable-background="new 0 0 45 45" version="1.1" viewBox="0 0 45 45" xml:space="preserve" xmlns="http://www.w3.org/2000/svg" xmlns:cc="http://creativecommons.org/ns#" xmlns:dc="http://purl.org/dc/elements/1.1/" xmlns:rdf="http://www.w3.org/1999/02/22-rdf-syntax-ns#"><metadata id="metadata8"><rdf:RDF><cc:Work rdf:about=""><dc:format>image/svg+xml</dc:format><dc:type rdf:resource="http://purl.org/dc/dcmitype/StillImage"/><dc:title/></cc:Work></rdf:RDF></metadata><defs id="defs6"><clipPath id="clipPath16"><path id="path18" d="m4 31c-2.209 0-4-1.791-4-4v-18c0-2.209 1.791-4 4-4h28c2.209 0 4 1.791 4 4v18c0 2.209-1.791 4-4 4h-28z"/></clipPath><clipPath id="clipPath16-0"><path id="path18-2" d="m4 31c-2.209 0-4-1.791-4-4v-18c0-2.209 1.791-4 4-4h28c2.209 0 4 1.791 4 4v18c0 2.209-1.791 4-4 4z"/></clipPath><clipPath id="clipPath1140"><path id="path1142" d="m18 31-18-26h11.959l6.0406 8.6703 6.0406-8.6703h11.959z" fill="#2b0000" fill-rule="evenodd"/></clipPath></defs><g id="g10-4" transform="matrix(1.25,0,0,-1.25,0,45)"><g id="g12-1"><g id="g14-0" clip-path="url(#clipPath16-0)"><path id="path20-0" d="m36 9.5h-36v-4.5h36z" fill="#fff"/><path id="path22-5" d="m36 13.93h-36v-4.6h36z" fill="#292f33"/><path id="path24-5" d="m36 18.17h-36v-4.5h36z" fill="#fff"/><path id="path26-8" d="m36 22.5h-36v-4.5h36z" fill="#292f33"/><path id="path28-5" d="m36 26.83h-36v-4.5h36z" fill="#fff"/><path id="path30-1" d="m36 31h-36v-4.33h36z" fill="#292f33"/></g></g></g><g id="g10" transform="matrix(1.25,0,0,-1.25,0,45)" clip-path="url(#clipPath1140)"><g id="g12"><g id="g14" clip-path="url(#clipPath16)"><path id="path20" d="m36.002 9.4998h-36.002v-4.5002h36.002z" fill="#880082"/><path id="path22" d="m36.002 13.93h-36.002v-4.6002h36.002z" fill="#3558a0"/><path id="path24" d="m36 18.17h-36v-4.5h36v4.5z" fill="#138f3e"/><path id="path26" d="m36 22.5h-36v-4.5h36v4.5z" fill="#fad220"/><path id="path28" d="m36 26.83h-36v-4.5h36v4.5z" fill="#ff5000"/><path id="path30" d="m36 31h-36v-4.33h36v4.33z" fill="#ff000e"/></g></g></g></svg>

<?xml version="1.0" encoding="UTF-8" standalone="no"?>
<svg
   xmlns:dc="http://purl.org/dc/elements/1.1/"
   xmlns:cc="http://creativecommons.org/ns#"
   xmlns:rdf="http://www.w3.org/1999/02/22-rdf-syntax-ns#"
   xmlns:svg="http://www.w3.org/2000/svg"
   xmlns="http://www.w3.org/2000/svg"
   xmlns:sodipodi="http://sodipodi.sourceforge.net/DTD/sodipodi-0.dtd"
   xmlns:inkscape="http://www.inkscape.org/namespaces/inkscape"
   inkscape:export-ydpi="1092.92"
   inkscape:export-xdpi="1092.92"
   inkscape:export-filename="F:\My Art\SVG &amp; SALES\MOREmoji\SET 2\png\straightally.png"
   inkscape:version="1.0 (4035a4fb49, 2020-05-01)"
   sodipodi:docname="straightally.svg"
   id="svg2"
   version="1.1"
   xml:space="preserve"
   style="enable-background:new 0 0 45 45;"
   viewBox="0 0 45 45"><sodipodi:namedview
     inkscape:current-layer="svg2"
     inkscape:window-maximized="1"
     inkscape:window-y="-8"
     inkscape:window-x="-8"
     inkscape:cy="30.326916"
     inkscape:cx="32.697204"
     inkscape:zoom="11.910821"
     showgrid="false"
     id="namedview16"
     inkscape:window-height="1027"
     inkscape:window-width="1920"
     inkscape:pageshadow="2"
     inkscape:pageopacity="0"
     guidetolerance="10"
     gridtolerance="10"
     objecttolerance="10"
     borderopacity="1"
     bordercolor="#666666"
     pagecolor="#ffffff" /><metadata
     id="metadata8"><rdf:RDF><cc:Work
         rdf:about=""><dc:format>image/svg+xml</dc:format><dc:type
           rdf:resource="http://purl.org/dc/dcmitype/StillImage" /><dc:title></dc:title></cc:Work></rdf:RDF></metadata><defs
     id="defs6"><clipPath
       clipPathUnits="userSpaceOnUse"
       id="clipPath16"><path
         d="M 4,31 C 1.791,31 0,29.209 0,27 L 0,27 0,9 C 0,6.791 1.791,5 4,5 l 0,0 28,0 c 2.209,0 4,1.791 4,4 l 0,0 0,18 c 0,2.209 -1.791,4 -4,4 l 0,0 -28,0 z"
         id="path18" /></clipPath><clipPath
       id="clipPath16-0"
       clipPathUnits="userSpaceOnUse"><path
         id="path18-2"
         d="M 4,31 C 1.791,31 0,29.209 0,27 V 27 9 C 0,6.791 1.791,5 4,5 v 0 h 28 c 2.209,0 4,1.791 4,4 v 0 18 c 0,2.209 -1.791,4 -4,4 v 0 z" /></clipPath><clipPath
       id="clipPath16-2"
       clipPathUnits="userSpaceOnUse"><path
         id="path18-20"
         d="M 0,36 36,36 36,0 0,0 0,36 Z" /></clipPath><clipPath
       id="clipPath16-6"
       clipPathUnits="userSpaceOnUse"><path
         id="path18-0"
         d="M 0,36 36,36 36,0 0,0 0,36 Z" /></clipPath><clipPath
       id="clipPath16-5"
       clipPathUnits="userSpaceOnUse"><path
         id="path18-9"
         d="M 0,36 36,36 36,0 0,0 0,36 Z" /></clipPath><clipPath
       id="clipPath1140"
       clipPathUnits="userSpaceOnUse"><path
         d="M 18,31 0,5 H 11.959375 L 18,13.670313 24.040625,5 H 36 Z"
         style="fill:#2b0000;fill-opacity:1;fill-rule:evenodd;stroke:none;stroke-width:3.31246;stroke-linecap:round;stroke-linejoin:round"
         id="path1142" /></clipPath></defs><g
     transform="matrix(1.25,0,0,-1.25,0,45)"
     id="g10-4"><g
       id="g12-1"><g
         clip-path="url(#clipPath16-0)"
         id="g14-0"><path
           id="path20-0"
           style="fill:#ffffff;fill-opacity:1;fill-rule:nonzero;stroke:none"
           d="M 36,9.5 H 0 V 5 h 36 z" /><path
           id="path22-5"
           style="fill:#292f33;fill-opacity:1;fill-rule:nonzero;stroke:none"
           d="M 36,13.93 H 0 v -4.6 h 36 z" /><path
           id="path24-5"
           style="fill:#ffffff;fill-opacity:1;fill-rule:nonzero;stroke:none"
           d="M 36,18.17 H 0 v -4.5 h 36 z" /><path
           id="path26-8"
           style="fill:#292f33;fill-opacity:1;fill-rule:nonzero;stroke:none"
           d="M 36,22.5 H 0 V 18 h 36 z" /><path
           id="path28-5"
           style="fill:#ffffff;fill-opacity:1;fill-rule:nonzero;stroke:none"
           d="M 36,26.83 H 0 v -4.5 h 36 z" /><path
           id="path30-1"
           style="fill:#292f33;fill-opacity:1;fill-rule:nonzero;stroke:none"
           d="M 36,31 H 0 v -4.33 h 36 z" /></g></g></g><g
     clip-path="url(#clipPath1140)"
     id="g10"
     transform="matrix(1.25,0,0,-1.25,0,45)"><g
       id="g12"><g
         id="g14"
         clip-path="url(#clipPath16)"><path
           d="M 36.001613,9.4998016 H 0 V 4.9996 h 36.001613 z"
           style="fill:#880082;fill-opacity:1;fill-rule:nonzero;stroke:none;stroke-width:1.00004"
           id="path20" /><path
           d="M 36.001613,13.93 H 0 V 9.329794 h 36.001613 z"
           style="fill:#3558a0;fill-opacity:1;fill-rule:nonzero;stroke:none;stroke-width:1.00004"
           id="path22" /><path
           d="m 36,18.17 -36,0 0,-4.5 36,0 0,4.5 z"
           style="fill:#138f3e;fill-opacity:1;fill-rule:nonzero;stroke:none"
           id="path24" /><path
           d="m 36,22.5 -36,0 0,-4.5 36,0 0,4.5 z"
           style="fill:#fad220;fill-opacity:1;fill-rule:nonzero;stroke:none"
           id="path26" /><path
           d="m 36,26.83 -36,0 0,-4.5 36,0 0,4.5 z"
           style="fill:#ff5000;fill-opacity:1;fill-rule:nonzero;stroke:none"
           id="path28" /><path
           d="m 36,31 -36,0 0,-4.33 36,0 0,4.33 z"
           style="fill:#ff000e;fill-opacity:1;fill-rule:nonzero;stroke:none"
           id="path30" /></g></g></g></svg>
